X:2303
T:Golden Keyboard, The
O:england
M:C|
K:D
BGEF GFGA|B2gB fBe2|BGEF GBAG|(3FED AD BDAD|\
EDEF GFGA|B2gB fBe2|d2ce dBAF|DFAF GEE2::\
B~e3 B~e3|Beef edBc|d~A3 f~A3|dAce dBAF|\
EDEF GEGA|B2gB fBe2|d2ce dBAF|DFAF GEE2||


